modules/feathericon/icons/fast-forward.svg

<svg width="14" height="8" viewBox="0 0 14 8" xmlns="http://www.w3.org/2000/svg"><path d="M0 0l6 4-6 4V0zm6 0l6 4-6 4V0zm6 0h2v8h-2V0z" fill="#000" fill-rule="evenodd"/></svg>

<?xml version="1.0" encoding="UTF-8"?>
<svg width="14px" height="8px" viewBox="0 0 14 8" version="1.1" xmlns="http://www.w3.org/2000/svg" xmlns:xlink="http://www.w3.org/1999/xlink">
    <!-- Generator: sketchtool 48.1 (47250) - http://www.bohemiancoding.com/sketch -->
    <title>fast-forward</title>
    <desc>Created with sketchtool.</desc>
    <defs></defs>
    <g id="media-player" stroke="none" stroke-width="1" fill="none" fill-rule="evenodd">
        <g id="fast-forward" fill="#000000">
            <path d="M0,0 L6,4 L0,8 L0,0 Z M6,0 L12,4 L6,8 L6,0 Z M12,0 L14,0 L14,8 L12,8 L12,0 Z" id="Shape"></path>
        </g>
    </g>
</svg>
